theme/essential/pix_core/e/find_replace.svg

<!DOCTYPE svg PUBLIC "-//W3C//DTD SVG 1.1//EN" "http://www.w3.org/Graphics/SVG/1.1/DTD/svg11.dtd" [
	<!ENTITY ns_flows "http://ns.adobe.com/Flows/1.0/">
]><svg xmlns="http://www.w3.org/2000/svg" width="16" height="16" viewBox="0 0.1 16 16" preserveAspectRatio="xMinYMid meet" overflow="visible" enable-background="new 0 0.1 16 16"><path d="M4.8 7.9h-.2v.2h3.1v-.7c-.2-.2-.3-.5-.5-.9l-2.9-6.5h-.1l-2.8 6.3c-.3.6-.5 1-.7 1.2s-.4.3-.7.4v.2h2.6v-.2c-.4 0-.6-.1-.7-.1-.2-.2-.3-.3-.3-.5s.1-.4.2-.6l.3-.8h2.8l.4 1c.1.3.2.4.2.4 0 .1 0 .1 0 .2s0 .2-.1.3c-.1 0-.3.1-.6.1zm-2.5-2.5l1.2-2.7 1.2 2.7h-2.4zm11.5 6.5c.8.2 1.3.4 1.6.6.4.4.7.8.7 1.4 0 .6-.2 1.1-.7 1.5-.6.5-1.4.7-2.6.7h-4v-.2c.4 0 .6 0 .7-.1s.2-.2.3-.3.1-.4.1-.8v-5.1c0-.4 0-.7-.1-.8s-.3-.3-.4-.3-.4-.1-.7-.1v-.2h3.8c.9 0 1.6.1 1.9.2s.7.4.9.7.3.7.3 1c0 .4-.1.7-.4 1s-.7.6-1.4.8zm-2.2.3v2.8c0 .2.1.4.2.5s.3.2.5.2c.3 0 .6-.1.9-.2s.5-.3.6-.6.2-.6.2-.9c0-.4-.1-.7-.3-1s-.4-.5-.7-.6-.8-.2-1.4-.2zm0-.5c.6 0 1-.1 1.2-.2s.5-.3.6-.5.2-.5.2-.9-.1-.6-.2-.9-.3-.4-.6-.5-.7-.2-1.2-.2v3.2zm-6.6 4.4v-2.5c-.4.3-.9.5-1.5.5-1.4 0-2.5-1.1-2.5-2.5 0-.6.2-1.1.5-1.5h.5v2h.1c.1.4.5.8.9.9v.1h2v-2l3 2.5-3 2.5z" fill="#999"/></svg>

<?xml version="1.0" encoding="utf-8"?>
<!-- Generator: Adobe Illustrator 15.1.0, SVG Export Plug-In  -->
<!DOCTYPE svg PUBLIC "-//W3C//DTD SVG 1.1//EN" "http://www.w3.org/Graphics/SVG/1.1/DTD/svg11.dtd" [
	<!ENTITY ns_flows "http://ns.adobe.com/Flows/1.0/">
]>
<svg version="1.1"
	 xmlns="http://www.w3.org/2000/svg" xmlns:xlink="http://www.w3.org/1999/xlink" xmlns:a="http://ns.adobe.com/AdobeSVGViewerExtensions/3.0/"
	 x="0px" y="0px" width="16px" height="16px" viewBox="0 0.1 16 16" style="overflow:visible;enable-background:new 0 0.1 16 16;"
	 xml:space="preserve" preserveAspectRatio="xMinYMid meet">
<defs>
</defs>
<path style="fill:#29a1c4;" d="M4.8,7.9H4.6v0.2h3.1V7.4C7.5,7.2,7.4,6.9,7.2,6.5L4.3,0H4.2L1.4,6.3c-0.3,0.6-0.5,1-0.7,1.2
	S0.3,7.8,0,7.9v0.2h2.6V7.9C2.2,7.9,2,7.8,1.9,7.8C1.7,7.6,1.6,7.5,1.6,7.3c0-0.2,0.1-0.4,0.2-0.6l0.3-0.8h2.8l0.4,1
	c0.1,0.3,0.2,0.4,0.2,0.4c0,0.1,0,0.1,0,0.2c0,0.1,0,0.2-0.1,0.3C5.3,7.8,5.1,7.9,4.8,7.9z M2.3,5.4l1.2-2.7l1.2,2.7H2.3z
	 M13.8,11.9c0.8,0.2,1.3,0.4,1.6,0.6c0.4,0.4,0.7,0.8,0.7,1.4c0,0.6-0.2,1.1-0.7,1.5c-0.6,0.5-1.4,0.7-2.6,0.7h-4v-0.2
	c0.4,0,0.6,0,0.7-0.1s0.2-0.2,0.3-0.3s0.1-0.4,0.1-0.8V9.6c0-0.4,0-0.7-0.1-0.8S9.5,8.5,9.4,8.5S9,8.4,8.7,8.4V8.2h3.8
	c0.9,0,1.6,0.1,1.9,0.2s0.7,0.4,0.9,0.7s0.3,0.7,0.3,1c0,0.4-0.1,0.7-0.4,1S14.5,11.7,13.8,11.9z M11.6,12.2v2.5l0,0.3
	c0,0.2,0.1,0.4,0.2,0.5s0.3,0.2,0.5,0.2c0.3,0,0.6-0.1,0.9-0.2s0.5-0.3,0.6-0.6s0.2-0.6,0.2-0.9c0-0.4-0.1-0.7-0.3-1
	s-0.4-0.5-0.7-0.6S12.2,12.2,11.6,12.2z M11.6,11.7c0.6,0,1-0.1,1.2-0.2s0.5-0.3,0.6-0.5s0.2-0.5,0.2-0.9s-0.1-0.6-0.2-0.9
	s-0.3-0.4-0.6-0.5s-0.7-0.2-1.2-0.2V11.7z M5,16.1v-2.5c-0.4,0.3-0.9,0.5-1.5,0.5C2.1,14.1,1,13,1,11.6c0-0.6,0.2-1.1,0.5-1.5H2v1v1
	h0.1C2.2,12.5,2.6,12.9,3,13v0.1h2v-2l3,2.5L5,16.1z"/>
</svg>
